material/.icons/material/alpha-a-box-outline.svg

<svg xmlns="http://www.w3.org/2000/svg" viewBox="0 0 24 24"><path d="M3 5a2 2 0 012-2h14a2 2 0 012 2v14a2 2 0 01-2 2H5a2 2 0 01-2-2V5m2 0v14h14V5H5m6 2h2a2 2 0 012 2v8h-2v-4h-2v4H9V9a2 2 0 012-2m0 2v2h2V9h-2z"/></svg>

<?xml version="1.0" encoding="UTF-8"?><!DOCTYPE svg PUBLIC "-//W3C//DTD SVG 1.1//EN" "http://www.w3.org/Graphics/SVG/1.1/DTD/svg11.dtd"><svg xmlns="http://www.w3.org/2000/svg" xmlns:xlink="http://www.w3.org/1999/xlink" version="1.1" id="mdi-alpha-a-box-outline" width="24" height="24" viewBox="0 0 24 24"><path d="M3,5A2,2 0 0,1 5,3H19A2,2 0 0,1 21,5V19A2,2 0 0,1 19,21H5C3.89,21 3,20.1 3,19V5M5,5V19H19V5H5M11,7H13A2,2 0 0,1 15,9V17H13V13H11V17H9V9A2,2 0 0,1 11,7M11,9V11H13V9H11Z" /></svg>
